X: 860
T: Thirty Years Ago
R: hornpipe
%S: s:2 b:13(6+7)
B: Francis O'Neill: "The Dance Music of Ireland" (1907) #860
Z: Frank Nordberg - http://www.musicaviva.com
F: http://www.musicaviva.com/abc/tunes/ireland/oneill-1001/0860/oneill-1001-0860-1.abc
N: Compacted via repeats and 2 types of multiple endings [JC]
M: 2/4
L: 1/16
K: G
%%slurgraces yes
%%graceslurs yes
% = = = = = = = = = =
"^A"[|] (Bc) | dBeB dBAB | GFGA [1,3 GDGA | BGBd cBAG | FGAF D2 :|[2,4 GABc | defe dcAF | G2{A}GF G2 :|
"^B"|: (3(DEF) |:: GFGA B2(AG) |[1 FGAF DEFD :|[2 Adde dcBA :|[3 FGAB c2(Bc) | defe dcAF | G2{A}GF G2 :|
